components/Lecture/assets/empty-set.svg

<svg width="126" height="129" viewBox="0 0 126 129" fill="none" xmlns="http://www.w3.org/2000/svg">
<path fill-rule="evenodd" clip-rule="evenodd" d="M117.741 0L0 119.382L6.87583 128.731L24.4984 110.63C47.7593 126.998 80.1066 124.782 100.907 103.982C122.096 82.7929 124 49.6218 106.619 26.2796L126 6.37225L117.741 0ZM92.4764 95.5511C76.3082 111.719 51.4192 113.852 32.9506 101.948L98.1673 34.9608C110.854 53.5277 108.957 79.0701 92.4764 95.5511ZM92.733 13.0301L84.0923 21.6708C65.7758 10.717 41.6939 13.1289 25.9163 28.9065C10.1388 44.684 7.72687 68.766 18.6806 87.0825L10.0405 95.7226C-5.45258 72.5564 -2.97086 40.9318 17.4856 20.4753C37.9421 0.018793 69.5667 -2.46293 92.733 13.0301Z" fill="white"/>
</svg>

<svg width="126" height="129" fill="none" xmlns="http://www.w3.org/2000/svg"><path fill-rule="evenodd" clip-rule="evenodd" d="M117.741 0L0 119.382l6.876 9.349 17.622-18.101c23.261 16.368 55.609 14.152 76.409-6.648 21.189-21.19 23.093-54.36 5.712-77.702L126 6.372 117.741 0zM92.476 95.551c-16.168 16.168-41.057 18.301-59.525 6.397l65.216-66.987c12.687 18.567 10.79 44.11-5.69 60.59zm.257-82.52l-8.64 8.64c-18.317-10.954-42.4-8.542-58.177 7.236-15.777 15.777-18.19 39.859-7.235 58.175l-8.64 8.64c-15.494-23.166-13.012-54.79 7.445-75.247C37.942.02 69.566-2.463 92.733 13.03z" fill="#fff"/></svg>
